X: 1
T: Fifty, The
M: 4/4
L: 1/8
R: reel
K: Dmaj
Bc |: dBBd cBAF | G2GF AdBc | dBBd cBcA | Bedc dABc |
dBBd cBAF | G2GF Adfe | dcBd cBAF |1 GFEC DABc :|2 GFEC D2fa ||
|: b2ba gfga | b2ba gfag | fedB d3c | dcBc defa |
b2ba gfec | d2dc Bdfe | dcBd cBAF |1 GABc d2fa :|2 GFEC D2 |]
